X:1
T: Lady Ami Stewart's Strathspey
C:
R:Strathspey
Q: 128
K:Bb
M:4/4
L:1/16
|:((3f2g2a2) |b3f f3g g3f d3f|g3B f3B Ac3 c2((3f2g2a2) |b3f f3g g3f d3F|ABc2 B3G FB3 B2((3f2g2a2) |
b3f f3g g3f d3f|g3B f3B Ac3 c2((3f2g2a2) |b3f f3g g3f d3F|ABc2 B3G FB3 B2:|
|:d2|B3d G3B F3B D3c|B3d c3B Ac3 c3d|B3d G3B F3B D3B|A3c B3G FB3 B3d|
B3d G3B F3B D3c|Bcde f3B Ac3 c3d|B3D E3F G3A B3g|f3B A3G FB3 B2:|
